!!!OTL: 538. Auf der Wanderung. / [Nur in Deutschland.]
!!!COM: W. Lyra
!!!ODT: 1843
!!!ARE: Europa, Mitteleuropa, Deutschland
!!!SCT: B0538
!!!TXL: @@DE
!!!YEM: Copyright 1995, estate of Helmut Schaffrath.
**kern	**text
*ICvox	*
*Ivox	*
*clefG2	*
*M3/4	*
*k[]	*
*C:	*
!LO:TX:a:t=Freudig.	!
{8e	Ʒwi-
8f	-ſchen
=1	=1
4.g	Frank-
8cc	-reich
8b	und
8a	dem
=2	=2
8.g	Böh-
16e	-mer-
8g}	-wald,
{8g	da
8f	wach-
8e	-ſen
=3	=3
(4d	unſ'-
4.g)	.
8f	-re
=4	=4
4f^^	Re-
4e}	-ben.
{8e	Grüß'
8f	mein
=5	=5
4.g	Lieb
8cc	am
8b	grü-
8a	-nen
=6	=6
2g#}	Rhein,
{8f#	grüß'
8e	mir
=7	=7
4.a	mei-
8cc	-nen
8b	küh-
8a	-len
=8	=8
2ee;}	Wein!
{8cc	Nur
8dd	in
=9	=9
4ee	Deutſchland,
4cc	.
8b	nur
8a	in
=10	=10
8.gL	Deutſchland
16eJ	.
8g}	.
{8g	da
8f	will
8e	ich
=11	=11
(4d	e-
4.g)	.
8f	-wig
=12	=12
4f	le-
8eL	-ben.
8gJ}	.
{8cc	Nur
8dd	in
=13	=13
4ee	Deutſchland,
4cc	.
8b	nur
8a	in
=14	=14
8.gL	Deutſchland
16eJ	.
8g}	.
{8g	da
8f	will
8e	ich
=15	=15
(4d	e-
4.g)	.
8B	-wig
=16	=16
4d	le-
4c}	-ben.
==	==
!!!AGN: Wander -, Heimat - Lied
!!!GTL: Wanderlieder
!!!ONB: ESAC (Essen Associative Code) Database: BOEHME
!!!AMT: simple triple
!!!AIN: vox
!!!EED: Helmut Schaffrath
!!!EEV: 1.0
!!Mel. von W. Lyra. 1843.
!!@@COMMENT:"Heinrich Hoffmann v. Fallersleben 1824. Die ſchöne Mel. iſt von W. Lyra komponirt
!!und ſteht ʒuerſt in Deutſche Lieder nebſt ihren Melodien. Leipʒig, Frieſe 1843. (Dort iſt der Name
!!des Komponiſten verſteckt ʒw. Jnhalts- und Druckfehlerverʒeichniß angegeben); alſo nicht alte Volks-
!!weiſe". [...]"
!!@@END:
!!!Text: H. von Fallersleben
!!!URL-scan: https://archive.org/details/BoehmeVtLieder1895/page/n427/mode/2up
!!!ENC: Anna Maria Matuszewska
!!!EEV: 2024/11/07
*-	*-
